docs/public/svg/integrations/ios.svg

<svg height="70" viewBox="0 0 70 70" width="70" xmlns="http://www.w3.org/2000/svg"><path d="m45.0806668 20.3497288c1.8016094.0774081 6.8567161.7388957 10.1113966 5.6034744-.2605164.1671918-6.031156 3.6211955-5.9554382 10.7929729.0854191 8.5721607 7.3472252 11.4139365 7.4300415 11.4530046-.06507.2004361-1.1551691 4.0674449-3.8157017 8.0647614-2.2985072 3.453761-4.6810137 6.8958744-8.4453693 6.968672-3.7002321.0774082-4.8949163-2.2402249-9.1225699-2.2348864-4.2281269.0050958-5.5477454 2.1870827-9.0468522 2.3317073-3.635872.1438966-6.4059588-3.7226269-8.7309672-7.1577032-4.7562582-7.0273955-8.39804565-19.8640399-3.5407516-28.5424851 2.4142134-4.3086476 6.7317818-7.0409844 11.4239165-7.1166939 3.5655965-.0742536 6.9395324 2.4530366 9.1192573 2.4489114 2.1813813-.0024266 6.2694303-3.0533742 10.5730382-2.6117354zm.0819409-13.68306213c.3558734 3.31811484-.9424495 6.64763463-2.8734889 9.04534513-1.9305662 2.3930999-5.0967515 4.2567186-8.194081 4.0106627-.4235462-3.2521117 1.1419185-6.6425388 2.9290941-8.7633757 1.9958728-2.39528388 5.3598707-4.17785458 8.1384758-4.29263213z" fill="#434242" fill-rule="evenodd"/></svg>

<?xml version="1.0" encoding="UTF-8"?>
<svg width="70px" height="70px" viewBox="0 0 70 70" version="1.1" xmlns="http://www.w3.org/2000/svg" xmlns:xlink="http://www.w3.org/1999/xlink">
    <!-- Generator: Sketch 62 (91390) - https://sketch.com -->
    <title>Icon_Apl</title>
    <desc>Created with Sketch.</desc>
    <g id="Icon_Apl" stroke="none" stroke-width="1" fill="none" fill-rule="evenodd">
        <path d="M45.0806668,20.3497288 C46.8822762,20.4271369 51.9373829,21.0886245 55.1920634,25.9532032 C54.931547,26.120395 49.1609074,29.5743987 49.2366252,36.7461761 C49.3220443,45.3183368 56.5838504,48.1601126 56.6666667,48.1991807 C56.6015967,48.3996168 55.5114976,52.2666256 52.850965,56.2639421 C50.5524578,59.7177031 48.1699513,63.1598165 44.4055957,63.2326141 C40.7053636,63.3100223 39.5106794,60.9923892 35.2830258,60.9977277 C31.0548989,61.0028235 29.7352804,63.1848104 26.2361736,63.329435 C22.6003016,63.4733316 19.8302148,59.6068081 17.5052064,56.1717318 C12.7489482,49.1443363 9.10716075,36.3076919 13.9644548,27.6292467 C16.3786682,23.3205991 20.6962366,20.5882623 25.3883713,20.5125528 C28.9539678,20.4382992 32.3279037,22.9655894 34.5076286,22.9614642 C36.6890099,22.9590376 40.7770589,19.90809 45.0806668,20.3497288 Z M45.1626077,6.66666667 C45.5184811,9.98478151 44.2201582,13.3143013 42.2891188,15.7120118 C40.3585526,18.1051117 37.1923673,19.9687304 34.0950378,19.7226745 C33.6714916,16.4705628 35.2369563,13.0801357 37.0241319,10.9592988 C39.0200047,8.56401492 42.3840026,6.78144422 45.1626077,6.66666667 Z" id="Fill-2" fill="#434242"></path>
    </g>
</svg>
